X: 20312
T: KATHRINE OGIE
Q: "Slow"
%R: strathspey, air
B: "Edinburgh Repository of Music" v.2 p.32 #2
F: http://digital.nls.uk/special-collections-of-printed-music/pageturner.cfm?id=87776133
Z: 2015 John Chambers <jc:trillian.mit.edu>
M: C
L: 1/8
K: Bm
B>A |\
F2(B>c) B3c | d2(c>d) {c}B2c>d |\
e3f (e<c) (B>c) | A3B c2B>A |\
F2(B>c) d3e | (d>e)(c>d) B2a>g |\
{g}f2 (3(edc) d>ec>d | (B4 f2) :|
|: B>c |\
(d>e)(f>g) a3b | (a<f) (e>f) a2 e>d |\
c2(af) (ec) (B>c) | A3B c2(BA) |\
d2(c>B) B3F | B>cd>e {de}f2ed |\
(e>f)(ab) (af)(ec) | (B4 f2) :|

%%sep 2 1 500
%%sep 1 1 500

